X:7245
T:The Ragg          %Tune name
C:1726           %Tune composer
Q:1/4=120     %Tempo
|:
O:England
M:6/8     %Meter
L:1/8     %
K:G
a |"D"f2 A AcA |"G"B/c/dB G2 g |"D"f2 A AcA |"G"d3 g2 a |"D"f2 A AcA |
"G"B/c/dB G2 g |"D"fga "A"gfe |"D"d3 "G(A)"g2  ::g |
"D"fga a"^"fd |"C"efg gec |"D"fga afd |f3 "(A)"a3 |"D"fga afd |"C"efg gec |"D"f/g/af "C(Am)"ecA |"D"d3 "G(A)"g2  :|


